X:1
T:The Banks o' Skene
M:2/4
L:1/8
K:F
 F2| d3/2 c/2 de| c3/2- A/2 GF| d3/2 c/2 df|d-c z C| F3/2 E/2 D C/2C/2|\
 CD DE| G3/2 A/2 cA| F2 C2| F3/2 E/2 D C/2C/2| CD DE| G3/2 A/2 cA|\
 F2|
